svg/filecloud.svg

<svg xmlns="http://www.w3.org/2000/svg" fill="none" viewBox="0.87 0.06 173.29 236.52"><path fill="#fff" d="M168.646 0.176246C107.411 11.9595 51.2937 28.3718 4.09697 51.1808C3.14404 51.6414 2.33749 52.3572 1.76696 53.2487C1.19644 54.1402 0.8843 55.1725 0.865234 56.2308V173.221C0.864909 178.744 2.3174 184.17 5.07686 188.953C7.83632 193.737 11.8056 197.71 16.5863 200.474L71.7614 232.373C76.5459 235.128 81.97 236.578 87.4908 236.578C93.0116 236.578 98.4357 235.128 103.22 232.373L158.429 200.474C163.21 197.71 167.179 193.737 169.938 188.953C172.698 184.17 174.15 178.744 174.15 173.221V136.188V4.63704C174.166 3.95313 174.025 3.27471 173.737 2.65386C173.45 2.03302 173.024 1.48625 172.493 1.05554C171.961 0.624831 171.338 0.321626 170.672 0.169202C170.005 0.0167774 169.312 0.0191872 168.646 0.176246Z"/><path fill="#0068AD" d="M161.966 9.90907C105.773 20.722 54.2769 35.7829 10.9666 56.7136C10.0921 57.1362 9.35199 57.7931 8.82845 58.6112C8.30491 59.4293 8.01847 60.3766 8.00098 61.3477V168.705C8.00068 173.772 9.33356 178.751 11.8658 183.141C14.398 187.531 18.0405 191.177 22.4274 193.713L73.0591 222.986C77.4497 225.513 82.427 226.844 87.4933 226.844C92.5595 226.844 97.5368 225.513 101.927 222.986L152.59 193.713C156.977 191.177 160.619 187.531 163.152 183.141C165.684 178.751 167.017 173.772 167.016 168.705V134.721V14.0025C167.031 13.3749 166.901 12.7524 166.638 12.1827C166.374 11.6129 165.983 11.1112 165.496 10.716C165.008 10.3207 164.436 10.0425 163.824 9.90261C163.212 9.76274 162.577 9.76495 161.966 9.90907Z"/><path fill="#fff" d="M161.966 9.90907C136.001 14.9139 111.102 20.861 87.501 27.8276V226.816C92.5629 226.83 97.539 225.509 101.927 222.986L152.59 193.713C156.977 191.177 160.619 187.531 163.152 183.141C165.684 178.751 167.017 173.772 167.016 168.705V134.721V14.0025C167.031 13.3749 166.901 12.7524 166.638 12.1827C166.374 11.6129 165.983 11.1112 165.496 10.716C165.008 10.3207 164.436 10.0425 163.824 9.90261C163.212 9.76274 162.577 9.76495 161.966 9.90907Z" opacity=".07"/><path fill="#020404" d="M132.912 40.7104C93.6945 45.7771 57.7828 55.4778 27.5552 68.5151C26.9553 68.7842 26.4431 69.2165 26.0771 69.7628C25.7111 70.3091 25.5061 70.9473 25.4855 71.6045V97.5555C25.4831 97.4361 25.5154 97.3186 25.5785 97.2172C25.6415 97.1157 25.7326 97.0347 25.8407 96.984C57.2577 83.267 94.9765 73.1492 136.233 68.0826H136.418V43.7998C136.422 43.3565 136.331 42.9175 136.15 42.5127C135.969 42.1078 135.704 41.7466 135.371 41.4535C135.038 41.1604 134.647 40.9424 134.222 40.8141C133.798 40.6859 133.351 40.6506 132.912 40.7104Z" opacity=".29"/><path fill="#020404" d="M93.8027 87.1753C71.1019 91.3956 48.8822 97.885 27.4781 106.546C26.8818 106.813 26.3752 107.247 26.0191 107.795C25.6629 108.343 25.4723 108.982 25.4701 109.635V135.586C25.462 135.472 25.4906 135.358 25.5517 135.26C25.6128 135.163 25.7032 135.088 25.8099 135.046C47.7083 126.019 70.4842 119.289 93.7718 114.965L93.8027 87.1753Z" opacity=".29"/><path fill="#fff" d="M137.144 32.9869C96.3979 40.8494 59.0498 53.068 27.6328 68.2834C27.0057 68.5879 26.474 69.0585 26.0955 69.644C25.717 70.2295 25.5061 70.9076 25.4858 71.6045V97.5555C25.4857 97.4326 25.5204 97.3122 25.5861 97.2082C25.6517 97.1043 25.7455 97.0212 25.8565 96.9685C58.5092 80.9499 97.7417 68.1134 140.619 60.1428L140.82 60.0501V35.9527C140.827 35.4974 140.731 35.0465 140.538 34.6342C140.345 34.2218 140.06 33.8589 139.706 33.573C139.351 33.2871 138.936 33.0858 138.493 32.9842C138.049 32.8826 137.588 32.8835 137.144 32.9869Z"/><path fill="#fff" d="M98.5293 80.1931C74.1375 86.8023 50.3891 95.591 27.5709 106.453C26.9381 106.759 26.4024 107.234 26.0234 107.825C25.6444 108.417 25.4369 109.102 25.4239 109.805V135.741C25.4218 135.617 25.4558 135.496 25.5217 135.392C25.5875 135.288 25.6824 135.205 25.7946 135.154C49.1476 123.884 73.4971 114.808 98.5293 108.044V80.1931Z"/><path fill="#020404" d="M52.2996 138.027C43.8682 139.793 35.5364 142.005 27.339 144.654C26.7623 144.888 26.2735 145.297 25.9411 145.824C25.6087 146.35 25.4494 146.967 25.4855 147.589V173.555C25.477 173.448 25.5023 173.342 25.5577 173.25C25.6131 173.159 25.696 173.087 25.7944 173.045C34.484 170.135 43.3337 167.726 52.2996 165.832V138.027Z" opacity=".29"/><path fill="#fff" d="M56.6248 131.709C46.5077 135.586 36.7459 139.741 27.6328 144.206C26.9988 144.514 26.4626 144.992 26.0836 145.586C25.7046 146.18 25.4977 146.868 25.4858 147.573V173.555C25.4857 173.432 25.5204 173.312 25.5861 173.208C25.6517 173.104 25.7455 173.021 25.8565 172.968C35.5411 168.226 45.8435 163.777 56.6248 159.637V131.709Z"/></svg>

<svg xmlns="http://www.w3.org/2000/svg" fill="none" viewBox="0.87 0.06 173.29 236.52"><path fill="#fff" d="M168.646.176C107.411 11.96 51.294 28.372 4.097 51.181a5.72 5.72 0 0 0-3.232 5.05v116.99a31.48 31.48 0 0 0 15.721 27.253l55.175 31.899a31.52 31.52 0 0 0 31.459 0l55.209-31.899a31.476 31.476 0 0 0 15.721-27.253V4.637a4.478 4.478 0 0 0-5.504-4.46"/><path fill="#0068AD" d="M161.966 9.91c-56.193 10.812-107.69 25.873-151 46.804a5.25 5.25 0 0 0-2.965 4.634v107.357a28.89 28.89 0 0 0 14.426 25.008l50.632 29.273a28.94 28.94 0 0 0 28.868 0l50.663-29.273a28.88 28.88 0 0 0 14.426-25.008V14.003a4.108 4.108 0 0 0-5.05-4.094"/><path fill="#fff" d="M161.966 9.91c-25.965 5.004-50.864 10.951-74.465 17.918v198.988a28.8 28.8 0 0 0 14.426-3.83l50.663-29.273a28.88 28.88 0 0 0 14.426-25.008V14.003a4.108 4.108 0 0 0-5.05-4.094" opacity=".07"/><path fill="#020404" d="M132.912 40.71c-39.217 5.067-75.13 14.768-105.357 27.805a3.51 3.51 0 0 0-2.07 3.09v25.95a.62.62 0 0 1 .356-.571c31.417-13.717 69.136-23.835 110.392-28.901h.185V43.8a3.08 3.08 0 0 0-1.047-2.346 3.09 3.09 0 0 0-2.459-.744M93.803 87.175a345 345 0 0 0-66.325 19.371 3.4 3.4 0 0 0-2.008 3.089v25.951a.54.54 0 0 1 .34-.54 342.3 342.3 0 0 1 67.962-20.081z" opacity=".29"/><path fill="#fff" d="M137.144 32.987C96.398 40.849 59.05 53.068 27.633 68.283a3.82 3.82 0 0 0-2.147 3.322v25.95a.65.65 0 0 1 .37-.587C58.51 80.95 97.742 68.114 140.62 60.144l.201-.093V35.953a3 3 0 0 0-1.114-2.38 3 3 0 0 0-2.562-.586M98.53 80.193a421.7 421.7 0 0 0-70.96 26.26 3.802 3.802 0 0 0-2.147 3.352v25.936a.63.63 0 0 1 .372-.587 418.6 418.6 0 0 1 72.734-27.11z"/><path fill="#020404" d="M52.3 138.027a244 244 0 0 0-24.961 6.627 2.975 2.975 0 0 0-1.854 2.935v25.966a.51.51 0 0 1 .31-.51c8.689-2.91 17.539-5.319 26.505-7.213z" opacity=".29"/><path fill="#fff" d="M56.625 131.709c-10.117 3.877-19.88 8.032-28.992 12.497a3.82 3.82 0 0 0-2.147 3.367v25.982a.65.65 0 0 1 .37-.587c9.685-4.742 19.987-9.191 30.769-13.331z"/></svg>
